X: 1
T: Catherine Margaret Hall
C: Jimmy Ritchie
R: reel
B: RSCDS Graded 2 #5
Z: 2010 John Chambers <jc:trillian.mit.edu>
M: C|
L: 1/16
K: A
e2 |\
"A"c4 "E7"cdcB | "A"A2c2 E2cd | "A"e3e "E7"fec2 | "A"e4 "(E)"e2fg |\
"F#m"a3f "E"g3e | "D"f2e2 "A"c2A2 | "E"B2e2 "B7"^d2f2 | "E7"e2d2 c2B2 |
y3 \
"A"c4 "E7"cdcB | "A"A2c2 E2cd | "A"e3e "E7"fec2 | "A"e4 "(E)"e2fg |\
"F#m"a3f "E"g3e | "D"fgfe "A"c2A2 | "Bm"B3A "E7"F2E2 | "A"A6 |]
c2 |\
"F#m"f3f f2c2 | "F#m"a2g2 f2c2 | "F#m"f3g a2g2 | "F#m"f4- "B7"f2gf |\
"E"e3e e2Be | "B7"g2f2 "E"efga | "B7"b2a2 g2f2 | "E7"e2d2 c2B2 |
y3 \
"A"c4 "E7"cdcB | "A"A2c2 "A"E2cd | "A"e3e "E7"fec2 | "A"e4 "(E)"e2fg |\
"F#m"a3f "E"g3e | "D"fgfe "A"c2A2 | "Bm"B3A "E7"F2E2 | "A"A6 |]
